assets/02_eyes/Eye 3.svg

<svg width="400" height="180" viewBox="0 0 400 180" fill="none" xmlns="http://www.w3.org/2000/svg">
<path d="M110 135C110 85.301 150.301 45 200 45C249.699 45 290 85.301 290 135H110Z" fill="white"/>
<path d="M200 135C224.853 135 245 114.853 245 90C245 65.1472 224.853 45 200 45C175.147 45 155 65.1472 155 90C155 114.853 175.147 135 200 135Z" fill="#010101"/>
<path d="M179.257 85.3434L178.241 82.8669H178.749L178.706 82.9304C178.41 83.5019 178.029 83.9887 177.563 84.3909C177.098 84.7931 176.526 85.1106 175.87 85.3434C175.214 85.5762 174.473 85.682 173.669 85.682C172.378 85.682 171.362 85.3011 170.579 84.5179C169.817 83.7347 169.436 82.4647 169.436 80.7079V68.8123C169.436 67.0555 169.838 65.7855 170.642 65.0024C171.446 64.2192 172.505 63.8382 173.817 63.8382C174.875 63.8382 175.828 64.071 176.653 64.5155C177.479 64.96 178.05 65.4257 178.347 65.8702L178.41 65.976H177.902V58.2503H182.982V85.3434H179.257ZM175.764 67.7964C174.939 67.7964 174.516 68.3678 174.516 69.532V79.8189C174.516 80.4963 174.664 80.9831 174.96 81.2794C175.256 81.5757 175.701 81.7239 176.272 81.7239C176.823 81.7239 177.225 81.5546 177.5 81.2159C177.775 80.8773 177.902 80.4539 177.902 79.9248V68.8758C177.331 68.1562 176.632 67.7964 175.764 67.7964ZM184.337 59.9436V62.3142H175.426V59.9436H184.337Z" fill="white"/>
<path d="M199.238 85.3434H194.158V83.0362H194.666C194.412 83.5019 194.073 83.9464 193.608 84.3486C193.163 84.7507 192.592 85.0682 191.936 85.3222C191.279 85.5762 190.539 85.7032 189.713 85.7032C188.443 85.7032 187.469 85.3222 186.75 84.5602C186.03 83.7982 185.691 82.5071 185.691 80.7291V64.198H190.771V80.0094C190.771 81.1524 191.237 81.7451 192.168 81.7451C192.465 81.7451 192.782 81.6181 193.142 81.3429C193.502 81.0678 193.841 80.7291 194.158 80.3269V64.198H199.238V85.3646V85.3434ZM197.82 58.4196V60.7902L187.088 63.1609V60.7902L197.82 58.4196Z" fill="white"/>
<path d="M201.27 64.1769H206.35V66.6534H205.842L206.075 66.357C206.604 65.722 207.302 65.1505 208.213 64.6214C209.123 64.0922 210.096 63.8382 211.134 63.8382C212.382 63.8382 213.293 64.2192 213.906 64.9812C214.52 65.7432 214.817 67.0132 214.817 68.8335V85.3646H209.737V69.5532C209.737 68.4102 209.313 67.8175 208.488 67.8175C207.662 67.8175 206.921 68.1774 206.35 68.897V85.3646H201.27V64.198V64.1769Z" fill="white"/>
<path d="M218.415 65.6585C219.473 64.4309 221.188 63.8382 223.622 63.8382H231.009V67.2249H226.331V66.7169C227.368 66.992 228.257 67.5 228.977 68.2197C229.697 68.9605 230.056 70.1882 230.056 71.9027V72.3472C230.056 73.6595 229.845 74.8025 229.421 75.7973C228.998 76.7921 228.321 77.5753 227.347 78.1679C226.395 78.7606 225.146 79.0569 223.601 79.0569H222.352C221.823 79.0569 221.442 79.1416 221.209 79.3109C220.976 79.4803 220.828 79.7554 220.828 80.1364C220.828 80.8984 221.336 81.2794 222.352 81.2794H224.511C226.839 81.2794 228.532 81.6816 229.612 82.4859C230.691 83.2902 231.221 84.6449 231.221 86.5287C231.221 88.6665 230.67 90.1905 229.548 91.1007C228.427 92.0108 226.86 92.4553 224.849 92.4553H222.373C220.447 92.4553 218.923 92.0955 217.759 91.397C216.594 90.6985 216.023 89.6402 216.023 88.222C216.023 87.3965 216.171 86.6769 216.446 86.0842C216.721 85.4916 217.145 85.0259 217.716 84.6872C218.288 84.3274 218.986 84.1157 219.812 83.9887V84.4967C218.69 84.3486 217.864 83.9464 217.378 83.3114C216.87 82.6764 216.637 81.8721 216.637 80.8773C216.637 79.9671 216.87 79.1839 217.356 78.5066C217.843 77.8293 218.669 77.4059 219.812 77.2578V77.7658C218.69 77.6176 217.907 76.9826 217.483 75.9243C217.06 74.8448 216.848 73.6595 216.848 72.3472V70.548C216.848 68.516 217.378 66.8862 218.415 65.6797V65.6585ZM220.616 87.841C220.87 88.095 221.251 88.222 221.759 88.222H225.823C226.31 88.222 226.691 88.095 226.966 87.841C227.22 87.587 227.347 87.2484 227.347 86.825C227.347 86.3806 227.22 86.0419 226.966 85.8302C226.712 85.6186 226.331 85.5127 225.823 85.5127H221.759C221.23 85.5127 220.849 85.6186 220.616 85.8302C220.362 86.0419 220.235 86.3806 220.235 86.825C220.235 87.2695 220.362 87.587 220.616 87.841ZM222.352 74.4426C222.627 74.6966 222.987 74.8236 223.41 74.8236C223.833 74.8236 224.236 74.6966 224.532 74.4426C224.828 74.1886 224.976 73.8076 224.976 73.2996V69.5743C224.976 69.0875 224.828 68.7065 224.532 68.4313C224.236 68.1773 223.855 68.0504 223.41 68.0504C222.966 68.0504 222.627 68.1773 222.352 68.4313C222.077 68.6853 221.928 69.0663 221.928 69.5743V73.2996C221.928 73.7865 222.077 74.1675 222.352 74.4426Z" fill="white"/>
<path d="M174.981 119.189C174.981 119.189 174.981 119.167 174.981 119.146V92.1167H180.061V119.21H175.045H175.002L174.981 119.189ZM180.061 114.998V119.189H179.384V114.998H180.061Z" fill="white"/>
<path d="M183.49 99.5249C184.548 98.2973 186.284 97.7046 188.697 97.7046C191.11 97.7046 192.846 98.3185 193.904 99.5249C194.962 100.753 195.47 102.361 195.47 104.393V112.818C195.47 114.85 194.941 116.479 193.904 117.686C192.846 118.913 191.131 119.506 188.697 119.506C186.263 119.506 184.548 118.892 183.49 117.686C182.432 116.458 181.924 114.85 181.924 112.818V104.393C181.924 102.361 182.453 100.731 183.49 99.5249ZM187.427 114.955C187.723 115.209 188.126 115.336 188.655 115.336C189.184 115.336 189.586 115.209 189.904 114.955C190.221 114.701 190.369 114.32 190.369 113.812V103.441C190.369 102.954 190.2 102.573 189.904 102.298C189.586 102.044 189.163 101.917 188.655 101.917C188.147 101.917 187.723 102.044 187.427 102.298C187.131 102.552 186.983 102.933 186.983 103.441V113.812C186.983 114.299 187.131 114.68 187.427 114.955Z" fill="white"/>
<path d="M198.73 99.5249C199.788 98.2973 201.524 97.7046 203.937 97.7046C206.35 97.7046 208.085 98.3185 209.144 99.5249C210.202 100.753 210.71 102.361 210.71 104.393V112.818C210.71 114.85 210.181 116.479 209.144 117.686C208.085 118.913 206.371 119.506 203.937 119.506C201.503 119.506 199.788 118.892 198.73 117.686C197.672 116.458 197.164 114.85 197.164 112.818V104.393C197.164 102.361 197.693 100.731 198.73 99.5249ZM202.667 114.955C202.963 115.209 203.365 115.336 203.895 115.336C204.424 115.336 204.826 115.209 205.143 114.955C205.461 114.701 205.609 114.32 205.609 113.812V103.441C205.609 102.954 205.44 102.573 205.143 102.298C204.826 102.044 204.403 101.917 203.895 101.917C203.387 101.917 202.963 102.044 202.667 102.298C202.371 102.552 202.222 102.933 202.222 103.441V113.812C202.222 114.299 202.371 114.68 202.667 114.955Z" fill="white"/>
<path d="M212.573 92.1167H217.653V105.706H217.145L221.421 98.0433H226.162L223.241 104.753C222.902 105.494 222.585 106.065 222.267 106.425C221.95 106.806 221.505 107.06 220.913 107.23C220.32 107.399 219.473 107.484 218.373 107.484V106.976C219.473 106.976 220.32 107.06 220.891 107.23C221.463 107.399 221.907 107.674 222.204 108.034C222.5 108.394 222.796 108.965 223.093 109.77L226.755 119.21H221.336L217.166 109.113H217.674V119.21H212.594V92.1167H212.573Z" fill="white"/>
</svg>

<svg xmlns="http://www.w3.org/2000/svg" width="400" height="180" fill="none" viewBox="0 0 400 180"><path fill="#fff" d="M110 135c0-49.699 40.301-90 90-90s90 40.301 90 90z"/><path fill="#010101" d="M200 135c24.853 0 45-20.147 45-45s-20.147-45-45-45-45 20.147-45 45 20.147 45 45 45"/><path fill="#fff" d="m179.257 85.343-1.016-2.476h.508l-.043.063a4.9 4.9 0 0 1-1.143 1.46c-.465.403-1.037.72-1.693.953s-1.397.339-2.201.339c-1.291 0-2.307-.38-3.09-1.164q-1.143-1.174-1.143-3.81V68.812q0-2.635 1.206-3.81c.804-.783 1.863-1.164 3.175-1.164 1.058 0 2.011.233 2.836.678.826.444 1.397.91 1.694 1.354l.063.106h-.508V58.25h5.08v27.093zm-3.493-17.547c-.825 0-1.248.572-1.248 1.736v10.287q0 1.016.444 1.46c.296.297.741.445 1.312.445.551 0 .953-.17 1.228-.508.275-.339.402-.762.402-1.291v-11.05c-.571-.719-1.27-1.079-2.138-1.079m8.573-7.852v2.37h-8.911v-2.37zm14.901 25.399h-5.08v-2.307h.508c-.254.466-.593.91-1.058 1.313-.445.402-1.016.72-1.672.973q-.985.381-2.223.381c-1.27 0-2.244-.38-2.963-1.143-.72-.762-1.059-2.053-1.059-3.83V64.197h5.08v15.811c0 1.143.466 1.736 1.397 1.736.297 0 .614-.127.974-.402q.54-.413 1.016-1.016V64.198h5.08v21.167zM197.82 58.42v2.37l-10.732 2.37v-2.37zm3.45 5.757h5.08v2.476h-.508l.233-.296c.529-.635 1.227-1.207 2.138-1.736a5.7 5.7 0 0 1 2.921-.783c1.248 0 2.159.381 2.772 1.143.614.762.911 2.032.911 3.853v16.53h-5.08v-15.81c0-1.144-.424-1.737-1.249-1.737s-1.567.36-2.138 1.08v16.468h-5.08zm17.145 1.482c1.058-1.228 2.773-1.82 5.207-1.82h7.387v3.386h-4.678v-.508a5.8 5.8 0 0 1 2.646 1.503q1.08 1.11 1.079 3.683v.444c0 1.313-.211 2.456-.635 3.45-.423.995-1.1 1.778-2.074 2.37q-1.428.89-3.746.89h-1.249q-.793 0-1.143.254c-.233.17-.381.444-.381.825q0 1.143 1.524 1.143h2.159c2.328 0 4.021.403 5.101 1.207 1.079.804 1.609 2.159 1.609 4.043 0 2.138-.551 3.662-1.673 4.572s-2.688 1.354-4.699 1.354h-2.476c-1.926 0-3.45-.36-4.614-1.058-1.165-.699-1.736-1.757-1.736-3.175 0-.825.148-1.545.423-2.138a3.1 3.1 0 0 1 1.27-1.397c.572-.36 1.27-.571 2.096-.698v.508c-1.122-.148-1.948-.55-2.434-1.186-.508-.635-.741-1.439-.741-2.434 0-.91.233-1.693.719-2.37.487-.678 1.313-1.101 2.456-1.25v.509c-1.122-.148-1.905-.783-2.329-1.842-.423-1.08-.635-2.265-.635-3.577v-1.799c0-2.032.53-3.662 1.567-4.868zm2.201 22.182q.381.381 1.143.381h4.064q.73 0 1.143-.381.381-.381.381-1.016c0-.444-.127-.783-.381-.995q-.381-.317-1.143-.317h-4.064q-.793 0-1.143.317c-.254.212-.381.55-.381.995s.127.762.381 1.016m1.736-13.398c.275.254.635.38 1.058.38s.826-.126 1.122-.38q.444-.381.444-1.143v-3.726q0-.729-.444-1.143c-.296-.254-.677-.38-1.122-.38-.444 0-.783.126-1.058.38s-.424.635-.424 1.143V73.3c0 .487.149.868.424 1.143m-47.371 44.746V92.116h5.08v27.094h-5.059zm5.08-4.191v4.191h-.677v-4.191zm3.429-15.473c1.058-1.228 2.794-1.82 5.207-1.82s4.149.614 5.207 1.82c1.058 1.228 1.566 2.836 1.566 4.868v8.425c0 2.032-.529 3.661-1.566 4.868-1.058 1.227-2.773 1.82-5.207 1.82s-4.149-.614-5.207-1.82c-1.058-1.228-1.566-2.836-1.566-4.868v-8.425c0-2.032.529-3.662 1.566-4.868m3.937 15.43c.296.254.699.381 1.228.381s.931-.127 1.249-.381c.317-.254.465-.635.465-1.143v-10.371c0-.487-.169-.868-.465-1.143-.318-.254-.741-.381-1.249-.381s-.932.127-1.228.381q-.444.381-.444 1.143v10.371q0 .73.444 1.143m11.303-15.43c1.058-1.228 2.794-1.82 5.207-1.82s4.148.614 5.207 1.82c1.058 1.228 1.566 2.836 1.566 4.868v8.425c0 2.032-.529 3.661-1.566 4.868-1.059 1.227-2.773 1.82-5.207 1.82s-4.149-.614-5.207-1.82c-1.058-1.228-1.566-2.836-1.566-4.868v-8.425c0-2.032.529-3.662 1.566-4.868m3.937 15.43c.296.254.698.381 1.228.381.529 0 .931-.127 1.248-.381.318-.254.466-.635.466-1.143v-10.371c0-.487-.169-.868-.466-1.143-.317-.254-.74-.381-1.248-.381s-.932.127-1.228.381q-.444.381-.445 1.143v10.371q0 .73.445 1.143m9.906-22.838h5.08v13.589h-.508l4.276-7.663h4.741l-2.921 6.71c-.339.741-.656 1.312-.974 1.672-.317.381-.762.635-1.354.805q-.89.254-2.54.254v-.508c1.1 0 1.947.084 2.518.254.572.169 1.016.444 1.313.804s.592.931.889 1.736l3.662 9.44h-5.419l-4.17-10.097h.508v10.097h-5.08V92.117z"/></svg>
